Newaita-dark/actions/24/tools-rip-video-cd.svg

<svg height="24" viewBox="0 0 24 24" width="24" xmlns="http://www.w3.org/2000/svg"><path d="m11.90625 2.171875c-5.496094 0-9.921875 4.425781-9.921875 9.921875 0 5.5 4.425781 9.925781 9.921875 9.925781.679688 0 1.34375-.070312 1.984375-.199219v-2.035156c-.632813.160156-1.296875.246094-1.984375.246094-4.398438 0-7.9375-3.539062-7.9375-7.9375s3.539062-7.9375 7.9375-7.9375 7.9375 3.539062 7.9375 7.9375c0 .867188-.136719 1.703125-.390625 2.480469h2.066406c.203125-.789063.3125-1.621094.3125-2.480469 0-5.496094-4.425781-9.921875-9.925781-9.921875zm0 0" fill="#e0e0e0"/><path d="m11.90625 9.117188c-1.648438 0-2.976562 1.328124-2.976562 2.976562s1.328124 2.976562 2.976562 2.976562 2.976562-1.328124 2.976562-2.976562-1.328124-2.976562-2.976562-2.976562zm0 .992187c1.101562 0 1.984375.886719 1.984375 1.984375 0 1.101562-.882813 1.984375-1.984375 1.984375-1.097656 0-1.984375-.882813-1.984375-1.984375 0-1.097656.886719-1.984375 1.984375-1.984375zm0 0" fill="#e0e0e0"/><path d="m11.90625 6.140625c-3.296875 0-5.953125 2.65625-5.953125 5.953125h.992187c0-2.746094 2.214844-4.960938 4.960938-4.960938zm0 0" fill="#f44336"/><path d="m16.394531 14.558594c-.140625-.007813-.277343.046875-.378906.140625-.101563.097656-.15625.234375-.15625.371093v6.453126c0 .191406.105469.367187.277344.453124.167969.089844.375.078126.53125-.035156l4.960937-3.472656c.144532-.097656.226563-.265625.21875-.4375-.003906-.175781-.097656-.335938-.25-.421875l-4.960937-2.980469c-.074219-.042968-.15625-.066406-.242188-.070312zm.492188 1.421875 3.503906 2.101562-3.503906 2.453125zm0 0" fill="#e0e0e0"/></svg>

<?xml version="1.0" encoding="UTF-8"?>
<svg xmlns="http://www.w3.org/2000/svg" xmlns:xlink="http://www.w3.org/1999/xlink" width="24px" height="24px" viewBox="0 0 24 24" version="1.1">
<g id="surface1">
<path style=" stroke:none;fill-rule:nonzero;fill:rgb(87.843138%,87.843138%,87.843138%);fill-opacity:1;" d="M 11.90625 2.171875 C 6.410156 2.171875 1.984375 6.597656 1.984375 12.09375 C 1.984375 17.59375 6.410156 22.019531 11.90625 22.019531 C 12.585938 22.019531 13.25 21.949219 13.890625 21.820312 L 13.890625 19.785156 C 13.257812 19.945312 12.59375 20.03125 11.90625 20.03125 C 7.507812 20.03125 3.96875 16.492188 3.96875 12.09375 C 3.96875 7.695312 7.507812 4.15625 11.90625 4.15625 C 16.304688 4.15625 19.84375 7.695312 19.84375 12.09375 C 19.84375 12.960938 19.707031 13.796875 19.453125 14.574219 L 21.519531 14.574219 C 21.722656 13.785156 21.832031 12.953125 21.832031 12.09375 C 21.832031 6.597656 17.40625 2.171875 11.90625 2.171875 Z M 11.90625 2.171875 "/>
<path style=" stroke:none;fill-rule:nonzero;fill:rgb(87.843138%,87.843138%,87.843138%);fill-opacity:1;" d="M 11.90625 9.117188 C 10.257812 9.117188 8.929688 10.445312 8.929688 12.09375 C 8.929688 13.742188 10.257812 15.070312 11.90625 15.070312 C 13.554688 15.070312 14.882812 13.742188 14.882812 12.09375 C 14.882812 10.445312 13.554688 9.117188 11.90625 9.117188 Z M 11.90625 10.109375 C 13.007812 10.109375 13.890625 10.996094 13.890625 12.09375 C 13.890625 13.195312 13.007812 14.078125 11.90625 14.078125 C 10.808594 14.078125 9.921875 13.195312 9.921875 12.09375 C 9.921875 10.996094 10.808594 10.109375 11.90625 10.109375 Z M 11.90625 10.109375 "/>
<path style=" stroke:none;fill-rule:nonzero;fill:rgb(95.686275%,26.274511%,21.176471%);fill-opacity:1;" d="M 11.90625 6.140625 C 8.609375 6.140625 5.953125 8.796875 5.953125 12.09375 L 6.945312 12.09375 C 6.945312 9.347656 9.160156 7.132812 11.90625 7.132812 Z M 11.90625 6.140625 "/>
<path style=" stroke:none;fill-rule:nonzero;fill:rgb(87.843138%,87.843138%,87.843138%);fill-opacity:1;" d="M 16.394531 14.558594 C 16.253906 14.550781 16.117188 14.605469 16.015625 14.699219 C 15.914062 14.796875 15.859375 14.933594 15.859375 15.070312 L 15.859375 21.523438 C 15.859375 21.714844 15.964844 21.890625 16.136719 21.976562 C 16.304688 22.066406 16.511719 22.054688 16.667969 21.941406 L 21.628906 18.46875 C 21.773438 18.371094 21.855469 18.203125 21.847656 18.03125 C 21.84375 17.855469 21.75 17.695312 21.597656 17.609375 L 16.636719 14.628906 C 16.5625 14.585938 16.480469 14.5625 16.394531 14.558594 Z M 16.886719 15.980469 L 20.390625 18.082031 L 16.886719 20.535156 Z M 16.886719 15.980469 "/>
</g>
</svg>
